public/logo/hetzner-logo.svg

<svg xmlns="http://www.w3.org/2000/svg" viewBox="0 0 181.42 22.24"><title>Element 1</title><g data-name="Ebene 2"><path d="M174.05 14.12a10.2 10.2 0 0 0 4.53-2 6.15 6.15 0 0 0 1.68-4.78 7.7 7.7 0 0 0-1.14-4.06 6.47 6.47 0 0 0-5.28-3.19h-1.09L170.2 0h-11.54c-.7 0-1 .29-1 1v20.22c0 .7.29 1 1 1h3c.7 0 1-.29 1-1v-6.7h3.67a3.48 3.48 0 0 1 2.17.91l5.82 5.85a3.08 3.08 0 0 0 2 .92h4.47c.7 0 .87-.41.38-.91Zm-.76-4.3h-10.65v-5.1h10.65a2.13 2.13 0 0 1 1.87 2.15v.79a2.14 2.14 0 0 1-1.87 2.16M153 17.52h-16.53v-4.17h13.19c.7 0 1-.29 1-1V9.92c0-.7-.29-1-1-1h-13.2V4.76H153c.7 0 1-.29 1-1V1c0-.7-.29-1-1-1h-20.62c-.7 0-1 .29-1 1v20.24c0 .7.29 1 1 1H153c.7 0 1-.29 1-1v-2.73c0-.7-.33-.99-1-.99M127.73 7.3a7.25 7.25 0 0 0-1.13-4 6.61 6.61 0 0 0-5.36-3.3h-15.16c-.71 0-1 .29-1 1v20.22c0 .7.29 1 1 1h3.26c.7 0 1-.28 1-1V4.73h8.78c1.87 0 3.69 1.24 3.69 3.11v13.4c0 .7.29 1 1 1h2.95c.71 0 1-.29 1-1Zm-27.26 10.09H86.22L100.5 4.84a2.57 2.57 0 0 0 1-1.84V1c0-.7-.3-1-1-1H79.83c-.7 0-1 .29-1 1v2.77c0 .7.29 1 1 1h13.25L79.79 17.24a2.62 2.62 0 0 0-1 1.84v2.17c0 .7.29 1 1 1h20.65c.7 0 1-.29 1-1v-2.87c.02-.7-.27-.99-.97-.99M74.19 0H53.55c-.71 0-1 .28-1 1v2.76c0 .7.28 1 1 1h7.78v16.48c0 .7.29 1 1 1h3.3c.7 0 1-.29 1-1V4.75h7.57c.7 0 1-.29 1-1V1c-.02-.68-.31-1-1.01-1M47.91 17.52h-16.5v-4.17H44.6c.7 0 1-.29 1-1V9.92c0-.7-.28-1-1-1H31.41V4.76h16.5c.7 0 1-.29 1-1V1c0-.7-.29-1-1-1H27.33c-.7 0-1 .29-1 1v20.24c0 .7.29 1 1 1h20.58c.7 0 1-.29 1-1v-2.73c-.01-.7-.3-.99-1-.99M21.63 0h-3.11c-.7 0-1 .29-1 1v7.87H5.13V1c0-.7-.29-1-1-1H1C.29 0 0 .29 0 1v20.25c0 .71.29 1 1 1h3.13c.7 0 1-.28 1-1v-8h12.4v8c0 .7.29 1 1 1h3.11c.7 0 1-.29 1-1V1c-.02-.68-.31-1-1.01-1" data-name="Logo Pur" style="fill:#d50c2d"/></g></svg>

<svg xmlns="http://www.w3.org/2000/svg" viewBox="0 0 181.42 22.24"><defs><style>.cls-1{fill:#d50c2d;}</style></defs><title>Element 1</title><g id="Ebene_2" data-name="Ebene 2"><g id="Logo_Pur" data-name="Logo Pur"><g id="Logo"><g id="HETZNER"><path class="cls-1" d="M174.05,14.12a10.22,10.22,0,0,0,4.53-2l0,0a6.15,6.15,0,0,0,1.68-4.78,7.71,7.71,0,0,0-1.14-4.06A6.47,6.47,0,0,0,173.84.09l-1.09,0L170.2,0,158.66,0c-.7,0-1,.29-1,1V21.22c0,.7.29,1,1,1h3c.7,0,1-.29,1-1v-6.7h3.67a3.48,3.48,0,0,1,2.17.91l5.82,5.85a3.08,3.08,0,0,0,2,.92h4.47c.7,0,.87-.41.38-.91Zm-.76-4.3H162.64V4.72h10.65a2.13,2.13,0,0,1,1.87,2.15v.79A2.14,2.14,0,0,1,173.29,9.82Z"/><path class="cls-1" d="M153,17.52H136.47V13.35h13.19c.7,0,1-.29,1-1V9.92c0-.7-.29-1-1-1h-13.2V4.76H153c.7,0,1-.29,1-1V1c0-.7-.29-1-1-1H132.38c-.7,0-1,.29-1,1V21.24c0,.7.29,1,1,1H153c.7,0,1-.29,1-1V18.51C154,17.81,153.67,17.52,153,17.52Z"/><path class="cls-1" d="M127.73,7.3a7.25,7.25,0,0,0-1.13-4A6.61,6.61,0,0,0,121.24,0L106.08,0c-.71,0-1,.29-1,1V21.22c0,.7.29,1,1,1h3.26c.7,0,1-.28,1-1V4.73l8.78,0c1.87,0,3.69,1.24,3.69,3.11V21.24c0,.7.29,1,1,1h2.95c.71,0,1-.29,1-1Z"/><path class="cls-1" d="M100.47,17.39l-14.25,0L100.5,4.84a2.57,2.57,0,0,0,1-1.84V1c0-.7-.3-1-1-1H79.83c-.7,0-1,.29-1,1V3.77c0,.7.29,1,1,1H93.08L79.79,17.24a2.62,2.62,0,0,0-1,1.84v2.17c0,.7.29,1,1,1l20.65,0c.7,0,1-.29,1-1V18.38C101.46,17.68,101.17,17.39,100.47,17.39Z"/><path class="cls-1" d="M74.19,0H53.55c-.71,0-1,.28-1,1V3.76c0,.7.28,1,1,1h7.78V21.24c0,.7.29,1,1,1h3.3c.7,0,1-.29,1-1V4.75h7.57c.7,0,1-.29,1-1V1C75.18.32,74.89,0,74.19,0Z"/><path class="cls-1" d="M47.91,17.52H31.41V13.35H44.6c.7,0,1-.29,1-1V9.92c0-.7-.28-1-1-1H31.41V4.76h16.5c.7,0,1-.29,1-1V1c0-.7-.29-1-1-1H27.33c-.7,0-1,.29-1,1V21.24c0,.7.29,1,1,1H47.91c.7,0,1-.29,1-1V18.51C48.9,17.81,48.61,17.52,47.91,17.52Z"/><path class="cls-1" d="M21.63,0H18.52c-.7,0-1,.29-1,1V8.87H5.13V1c0-.7-.29-1-1-1H1C.29,0,0,.29,0,1V21.25c0,.71.29,1,1,1H4.13c.7,0,1-.28,1-1v-8h12.4v8c0,.7.29,1,1,1h3.11c.7,0,1-.29,1-1V1C22.62.32,22.33,0,21.63,0Z"/></g></g></g></g></svg>
